!!!!SEGMENT: pl-cz--iii-259--002_gotschalk-filip--salve-regina.krn
!!!cenid: 18xx:117
!!!COM: Gotschalk, Filip
!!!COM-rismID: pe30020320
!!!CDT: 1760-1809
!!!CNT:
!!!OTL: Salve Regina
!!!PDT:
!!!AGN: Sacred
!!!YEC: Copyright 2022 Narodowy Instytut Fryderyka Chopina (https://polishscores.org)
!!!YEM: License CC-BY-4.0 (https://creativecommons.org/licenses/by/4.0)
!!!SMS-siglum: PL-CZ
!!!SMS-shelfmark: III-259
!!!SMS-shelfwork: 002 W
!!!NIFC-rismSourceID: 300000383
!!!NIFC-rismChildID: 300000383
!!!NIFC-islandoraID: pl-cz:36920
!!!URL-pdf-islandora: https://repozytorium.nifc.pl/islandora/object/pl-cz%3A36920/datastream/PDF/view
!!!URL-scan: https://polish.musicsources.pl/pl/lokalizacje/galeria/rekopisy/6880/1 @EN{Scan on Polish Music Sources Website} @PL{Skany w portalu Dziedzictwo Muzyki Polskiej w otwartym dostępie}
!!!IIIF:
!!!ONB-nifc:
!!!AIN: 1 bass 2 empty 2 violn 2 vox
!!!key:
**kern	**fb	**text	**dynam	**kern	**text	**kern	**text	**kern	**dynam	**kern	**dynam	**kern	**kern
*part7	*	*	*	*part6	*	*part5	*	*part4	*	*part3	*	*part2	*part1
*staff7	*	*	*	*staff6	*	*staff5	*	*staff4	*	*staff3	*	*staff2	*staff1
*Ibass	*	*	*	*Ivox	*	*Ivox	*	*Ivioln	*	*Ivioln	*	*Iempty	*Iempty
*I"Basso	*	*	*	*I"Canto Secondo	*	*I"Canto Primo	*	*I"Violino Secondo	*	*I"Violino Primo	*	*I"Cornu Secondo in G	*I"[Cornu I in G]*
*I'B	*	*	*	*I'C II	*	*I'C I	*	*I'Vn II	*	*I'Vn I	*	*I'Cor II	*I'[Cor I]
*clefF4	*	*	*	*clefC1	*	*clefC1	*	*clefG2	*	*clefG2	*	*clefG2	*clefG2
*	*	*	*	*	*	*	*	*	*	*	*	*ITrd3c5	*ITrd3c5
*k[f#]	*	*	*	*k[f#]	*	*k[f#]	*	*k[f#]	*	*k[f#]	*	*k[f#]	*k[f#]
*G:	*	*	*	*G:	*	*G:	*	*G:	*	*G:	*	*	*
*M4/4	*	*	*	*M4/4	*	*M4/4	*	*M4/4	*	*M4/4	*	*M4/4	*M4/4
*met(c)	*	*	*	*met(c)	*	*met(c)	*	*met(c)	*	*met(c)	*	*met(c)	*met(c)
!LO:TX:a:t=Salve Moderato	!	!	!	!	!	!	!	!LO:TX:a:t=Salve Moderato	!	!LO:TX:a:t=Salve Moderato	!	!LO:TX:a:t=Salve Moderato	!LO:TX:a:t=Problem: brak głosu w źródle
4r	.	.	.	4r	.	4r	.	16bLL	f	16ddLL	.	4r	4r
.	.	.	.	.	.	.	.	16cc	.	16ee	.	.	.
.	.	.	.	.	.	.	.	16b	.	16dd	.	.	.
.	.	.	.	.	.	.	.	16aJJ	.	16ccJJ	.	.	.
=1	=1	=1	=1	=1	=1	=1	=1	=1	=1	=1	=1	=1	=1
8r	.	.	.	1r	.	1r	.	8aL	.	(>8ccL	.	8r	8r
8GGL	.	.	.	.	.	.	.	8gJ	.	8bJ)	.	8gL	8bL
*	*	*	*	*	*	*	*	*2\right	*	*2\right	*	*	*
8BB	.	.	.	.	.	.	.	2g	.	2d 2b\	.	8g	8b
8DJ	.	.	.	.	.	.	.	.	.	.	.	8gJ	8bJ
4G	.	.	.	.	.	.	.	.	.	.	.	4g	4b
4GG	.	.	.	.	.	.	.	16aLL	.	(>16ccLL	.	4r	4r
.	.	.	.	.	.	.	.	16b	.	16dd	.	.	.
.	.	.	.	.	.	.	.	16a	.	16cc	.	.	.
.	.	.	.	.	.	.	.	16gJJ	.	16bJJ)	.	.	.
=2	=2	=2	=2	=2	=2	=2	=2	=2	=2	=2	=2	=2	=2
8r	.	.	.	1r	.	1r	.	8gL	.	8bL\	.	8r	8r
8DL	.	.	.	.	.	.	.	8f#J	.	8aJ	.	8dL	8aL
8F#	.	.	.	.	.	.	.	2f#	.	2d 2a\\	.	8d	8a
8AJ	.	.	.	.	.	.	.	.	.	.	.	8dJ	8aJ
4d	.	.	.	.	.	.	.	.	.	.	.	4d	4a
4D	.	.	.	.	.	.	.	4d	.	4d	.	4r	4r
=3	=3	=3	=3	=3	=3	=3	=3	=3	=3	=3	=3	=3	=3
4GG	.	.	.	1r	.	1r	.	8BL 8g	.	8gL	.	1r	1r
.	.	.	.	.	.	.	.	8B	.	8g	.	.	.
4G	.	.	.	.	.	.	.	8d	.	(<8a	.	.	.
.	.	.	.	.	.	.	.	8gJ	.	8bJ)	.	.	.
4D	.	.	.	.	.	.	.	8f#L	.	8aL	.	.	.
.	.	.	.	.	.	.	.	8f#	.	8a	.	.	.
4D	.	.	.	.	.	.	.	8g	.	(<8b	.	.	.
.	.	.	.	.	.	.	.	8aJ	.	8ccJ)	.	.	.
!	!	!	!	!	!	!	!	!LO:LB:g=original	!	!LO:LB:g=original	!	!	!
=4	=4	=4	=4	=4	=4	=4	=4	=4	=4	=4	=4	=4	=4
4G	.	.	.	1r	.	1r	.	4.b/	.	(>4.dd	.	4.b	4.dd
4D	.	.	.	.	.	.	.	.	.	.	.	.	.
.	.	.	.	.	.	.	.	8a	.	8cc)	.	8a	8cc
!LO:LB:g=original	!	!	!	!	!	!	!	!	!	!	!	!	!
4GG	.	.	.	.	.	.	.	4g	.	4b	.	4g	4b
4r	.	.	.	.	.	.	.	4dd	.	8ddL	.	4r	4r
.	.	.	.	.	.	.	.	.	.	16eeL	.	.	.
.	.	.	.	.	.	.	.	.	.	16ff#JJ	.	.	.
=5	=5	=5	=5	=5	=5	=5	=5	=5	=5	=5	=5	=5	=5
4GG	.	.	.	1r	.	1r	.	8bL 8gg	.	8gg'L	.	1r	1r
.	.	.	.	.	.	.	.	8bJ 8gg	.	8gg'	.	.	.
4G	.	.	.	.	.	.	.	8ff#L	.	(>8aa	.	.	.
.	.	.	.	.	.	.	.	8ggJ	.	8bbJ)	.	.	.
4D	.	.	.	.	.	.	.	8ff#L	.	8aa'L	.	.	.
.	.	.	.	.	.	.	.	8ff#	.	8aa'	.	.	.
4D	.	.	.	.	.	.	.	8gg	.	(>8bb	.	.	.
.	.	.	.	.	.	.	.	8aaJ	.	8cccJ)	.	.	.
=6	=6	=6	=6	=6	=6	=6	=6	=6	=6	=6	=6	=6	=6
8GL	.	.	.	1r	.	1r	.	4.bb	.	(>4.ddd	.	4.b	4.dd
8D	.	.	.	.	.	.	.	.	.	.	.	.	.
8F#	.	.	.	.	.	.	.	.	.	.	.	.	.
8DJ	.	.	.	.	.	.	.	8aa	.	8ccc)	.	8a	8cc
4G	.	.	.	.	.	.	.	4gg	.	4bb	.	4g	4b
4GG	.	.	.	.	.	.	.	4g 4b	.	12ddL	.	4r	4r
.	.	.	.	.	.	.	.	.	.	12cc	.	.	.
.	.	.	.	.	.	.	.	.	.	12bJ	.	.	.
!	!	!	!	!	!	!	!	!	!	!	!	!LO:LB:g=original	!
=7	=7	=7	=7	=7	=7	=7	=7	=7	=7	=7	=7	=7	=7
4C	6 3	.	.	1r	.	1r	.	(<4e	.	12aL\	.	1r	1r
.	.	.	.	.	.	.	.	.	.	12b	.	.	.
.	.	.	.	.	.	.	.	.	.	12g#XJ	.	.	.
4D/	6 3	.	.	.	.	.	.	4fn)	.	12aL\	.	.	.
.	.	.	.	.	.	.	.	.	.	12b	.	.	.
.	.	.	.	.	.	.	.	.	.	12g#J	.	.	.
4C/	6	.	.	.	.	.	.	4e	.	12aL	.	.	.
.	.	.	.	.	.	.	.	.	.	12ee	.	.	.
.	.	.	.	.	.	.	.	.	.	12ddJ	.	.	.
4r	.	.	.	.	.	.	.	4r	.	12ccL	.	.	.
.	.	.	.	.	.	.	.	.	.	12b	.	.	.
.	.	.	.	.	.	.	.	.	.	12aJ	.	.	.
!	!	!	!	!	!	!	!	!	!	!LO:LB:g=original	!	!	!
=8	=8	=8	=8	=8	=8	=8	=8	=8	=8	=8	=8	=8	=8
4BB	6	.	.	1r	.	1r	.	(<4B 4d	.	12gL	.	4B	4d
.	.	.	.	.	.	.	.	.	.	12a	.	.	.
.	.	.	.	.	.	.	.	.	.	12f#XJ	.	.	.
4C	6	.	.	.	.	.	.	4c) 4d	.	12gL	.	4d	4d
.	.	.	.	.	.	.	.	.	.	12a	.	.	.
.	.	.	.	.	.	.	.	.	.	12f#J	.	.	.
4BB	6	.	.	.	.	.	.	4B 4d	.	12gL/	.	4B	4d
.	.	.	.	.	.	.	.	.	.	12dd	.	.	.
.	.	.	.	.	.	.	.	.	.	12ccJ	.	.	.
4r	.	.	.	.	.	.	.	4r	.	12bL/	.	4r	4r
.	.	.	.	.	.	.	.	.	.	12a	.	.	.
.	.	.	.	.	.	.	.	.	.	12gJ	.	.	.
!LO:LB:g=original	!	!	!	!	!	!	!	!LO:LB:g=original	!	!	!	!	!
=9	=9	=9	=9	=9	=9	=9	=9	=9	=9	=9	=9	=9	=9
*tremolo	*	*	*	*	*	*	*	*	*	*	*	*	*
8CL	6	.	.	1r	.	1r	.	16aLL	.	16aLL	.	2r	2r
.	.	.	.	.	.	.	.	16g#X	.	16g#X	.	.	.
8C	.	.	.	.	.	.	.	16a	.	16a	.	.	.
.	.	.	.	.	.	.	.	16bJJ	.	16bJJ	.	.	.
8C	.	.	.	.	.	.	.	16ccLL	.	16ccLL	.	.	.
.	.	.	.	.	.	.	.	16b	.	16b	.	.	.
8CJ	.	.	.	.	.	.	.	16cc	.	16cc	.	.	.
.	.	.	.	.	.	.	.	16ddJJ	.	16ddJJ	.	.	.
*Xtremolo	*	*	*	*	*	*	*	*	*	*	*	*	*
8CL	.	.	.	.	.	.	.	16eeLL	.	16eeLL	.	4r	4r
.	.	.	.	.	.	.	.	16dd	.	16dd	.	.	.
8C	.	.	.	.	.	.	.	16ee	.	16ee	.	.	.
.	.	.	.	.	.	.	.	16ff#JJ	.	16ff#JJ	.	.	.
8C#X	7_ 5_	.	.	.	.	.	.	8ggL	.	8ggL	.	8r	8r
8C#J	x	.	.	.	.	.	.	8g#J 8b	.	8bJ	.	8g	8b
=10	=10	=10	=10	=10	=10	=10	=10	=10	=10	=10	=10	=10	=10
*	*	*	*	*2\right	*	*2\right	*	*	*	*	*	*2\right	*
8DL	6 4	.	.	2r	.	2r	.	2g	.	2b//	.	2g	2b
8d	.	.	.	.	.	.	.	.	.	.	.	.	.
8c	.	.	.	.	.	.	.	.	.	.	.	.	.
8dJ	.	.	.	.	.	.	.	.	.	.	.	.	.
4D	.	.	.	4r	.	4r	.	4f#	.	4a	.	4d	4a
4r	.	.	.	16bLL	Sal-	16ddLL	Sal-	4r	.	4r	.	4r	4r
.	.	.	.	16cc	.	16ee	.	.	.	.	.	.	.
.	.	.	.	16b	.	16dd	.	.	.	.	.	.	.
.	.	.	.	16aJJ	.	16ccJJ	.	.	.	.	.	.	.
=11	=11	=11	=11	=11	=11	=11	=11	=11	=11	=11	=11	=11	=11
8r	.	.	.	8aL	.	8ccL	.	8r	.	8r	.	1r	1r
8GL	.	.	p	8gJ	.	8bJ	.	8dL	p	8bL/	p	.	.
8G	.	.	.	2g	-ve	2b	-ve	8d	.	8b	.	.	.
8GJ	.	.	.	.	.	.	.	8dJ	.	8bJ	.	.	.
!	!	!	!	!	!	!	!	!	!	!LO:LB:g=original	!	!	!
4G	.	.	.	.	.	.	.	4d	.	4b/	.	.	.
4r	.	.	.	16aLL	Re-	16ccLL	Re-	4r	.	4r	.	.	.
.	.	.	.	16b	.	16dd	.	.	.	.	.	.	.
.	.	.	.	16a	.	16cc	.	.	.	.	.	.	.
.	.	.	.	16gJJ	.	16bJJ	.	.	.	.	.	.	.
!	!	!	!	!LO:LB:g=original	!	!	!	!	!	!	!	!	!
=12	=12	=12	=12	=12	=12	=12	=12	=12	=12	=12	=12	=12	=12
8r	.	.	???	8gL	-gi-	8bL	-gi-	8r	.	8r	.	1r	1r
8DL/	.	.	.	8f#J	.	8aJ	.	8f#L	.	8aL	.	.	.
8D	.	.	.	2f#	-na	2a	-na	8f#	.	8a	.	.	.
8DJ	.	.	.	.	.	.	.	8f#J	.	8aJ	.	.	.
4D/	.	.	.	.	.	.	.	4f#	.	4a	.	.	.
4r	.	.	.	4d	Ma-	4d	Ma-	4r	.	4r	.	.	.
!LO:LB:g=original	!	!	!	!	!	!LO:LB:g=original	!	!LO:LB:g=original	!	!	!	!	!
=13	=13	=13	=13	=13	=13	=13	=13	=13	=13	=13	=13	=13	=13
4G	.	.	.	4g/	.	4g	.	1r	.	1r	.	1r	1r
4D	.	.	.	8f#	-ter	8a	-ter	.	.	.	.	.	.
.	.	.	.	8g/	mi-	8b	mi-	.	.	.	.	.	.
4F#	.	.	.	4f#	-se-	4a	-se-	.	.	.	.	.	.
4D	.	.	.	8gL/	-ri-	8bL	-ri-	.	.	.	.	.	.
.	.	.	.	8aJ	.	8ccJ	.	.	.	.	.	.	.
=14	=14	=14	=14	=14	=14	=14	=14	=14	=14	=14	=14	=14	=14
4G	.	.	.	4.b	-cor-	4.dd	-cor-	4.b/	.	4.dd	.	4.b	4.dd
4D	.	.	.	.	.	.	.	.	.	.	.	.	.
.	.	.	.	8a	-di-	8cc	-di-	8a	.	8cc	.	8a	8cc
4GG	.	.	.	4g	-ae	4b	-ae	4g	.	4b	.	4g	4b
4r	.	.	.	4r	.	4r	.	8dL	.	8dL	.	4r	4r
.	.	.	.	.	.	.	.	16eL	.	16eL	.	.	.
.	.	.	.	.	.	.	.	16f#JJ	.	16f#JJ	.	.	.
=15	=15	=15	=15	=15	=15	=15	=15	=15	=15	=15	=15	=15	=15
!!linebreak:original
!	!	!	!	!	!	!	!	!	!	!LO:TX:a:t=cor	!	!	!
4G	.	.	.	2g/	Vi-	4g	Vi-	8BL 8g	.	8gL	.	1r	8gL
.	.	.	.	.	.	.	.	8B	.	8g	.	.	8g
4G	.	.	.	.	.	8aL	.	8d	.	8a	.	.	8a
.	.	.	.	.	.	8bJ	.	8gJ	.	8bJ	.	.	8bJ
4F#	.	.	.	4f#	-ta	4a	-ta	8f#L	.	8aL	.	.	8aL
.	.	.	.	.	.	.	.	8f#	.	8a	.	.	8a
4F#	.	.	.	8gL/	dul-	8bL	dul-	8g	.	8b	.	.	8b
.	.	.	.	8aJ	.	8ccJ	.	8aJ	.	8ccJ	.	.	8ccJ
!	!	!	!	!LO:LB:g=original	!	!	!	!	!	!	!	!	!
=16	=16	=16	=16	=16	=16	=16	=16	=16	=16	=16	=16	=16	=16
4G	.	.	.	4.b	-ce-	4.dd	-ce-	4.b/	.	4.dd	.	4.b	4.dd
4D	.	.	.	.	.	.	.	.	.	.	.	.	.
.	.	.	.	8a	.	8cc	.	8a	.	8cc	.	8a	8cc
!	!	!	!	!	!	!	!	!	!	!	!	!LO:LB:g=original	!
8GGL/	.	.	.	4g	-do	4b	-do	4g	.	4b	.	4g	4b
8G\	.	.	.	.	.	.	.	.	.	.	.	.	.
8GG/	.	.	.	4r	.	4r	.	4r	.	4r	.	4r	4r
8GJ\	.	.	.	.	.	.	.	.	.	.	.	.	.
!	!	!	!	!	!	!LO:LB:g=original	!	!	!	!LO:LB:g=original	!	!	!
=17	=17	=17	=17	=17	=17	=17	=17	=17	=17	=17	=17	=17	=17
8C	6	.	.	1r	.	12a`L	et	8e	.	8a	.	1r	1r
.	.	.	.	.	.	12b`	.	.	.	.	.	.	.
8r	.	.	.	.	.	.	.	8r	.	8r	.	.	.
.	.	.	.	.	.	12g#X`J	.	.	.	.	.	.	.
4r	.	.	.	.	.	12a`L	.	8c 8e	.	8a	.	.	.
.	.	.	.	.	.	12b`	.	.	.	.	.	.	.
.	.	.	.	.	.	.	.	8r	.	8r	.	.	.
.	.	.	.	.	.	12g#`J	.	.	.	.	.	.	.
!LO:LB:g=original	!	!	!	!	!	!	!	!LO:LB:g=original	!	!	!	!	!
12A`L	.	.	.	.	.	4a	spes	12AL	.	12aL/	f	.	.
12e`	.	.	.	.	.	.	.	12e	.	12ee\	.	.	.
12d`J	.	.	.	.	.	.	.	12dJ	.	12ddJ\	.	.	.
12c`L	.	.	.	.	.	4r	.	12cL	.	12ccL	.	.	.
12B`	.	.	.	.	.	.	.	12B	.	12b	.	.	.
12A`J	.	.	.	.	.	.	.	12AJ	.	12aJ	.	.	.
=18	=18	=18	=18	=18	=18	=18	=18	=18	=18	=18	=18	=18	=18
4G`	.	.	.	1r	.	12g`L	nos-	8B 8d	p	8g	p	4B	4d
.	.	.	.	.	.	12a`	.	.	.	.	.	.	.
.	.	.	.	.	.	.	.	8r	.	8r	.	.	.
.	.	.	.	.	.	12f#`J	.	.	.	.	.	.	.
4r	.	.	.	.	.	12g`L	.	8B 8d	.	8g	.	4d	4g
.	.	.	.	.	.	12a`	.	.	.	.	.	.	.
.	.	.	.	.	.	.	.	8r	.	8r	.	.	.
.	.	.	.	.	.	12f#`J	.	.	.	.	.	.	.
12G`L	.	.	.	.	.	4g	-tra	12GL	f	12gL/	f	4B	4d
12d`	.	.	.	.	.	.	.	12d	.	12dd	.	.	.
12c`J	.	.	.	.	.	.	.	12cJ	.	12ccJ	.	.	.
12B`L	.	.	.	.	.	4r	.	12BL	.	12bL	.	4r	4r
12A`	.	.	.	.	.	.	.	12A	.	12a	.	.	.
12G`J	.	.	.	.	.	.	.	12GJ	.	12gJ	.	.	.
=19	=19	=19	=19	=19	=19	=19	=19	=19	=19	=19	=19	=19	=19
4C	6	.	.	1r	.	(>16aLL	sal-	8e	f	8a	p	1r	1r
.	.	.	.	.	.	16g#X	.	.	.	.	.	.	.
.	.	.	.	.	.	16a	.	8r	.	8r	.	.	.
.	.	.	.	.	.	16bJJ)	.	.	.	.	.	.	.
4r	.	.	.	.	.	(>16ccLL	.	8a	.	8cc	.	.	.
.	.	.	.	.	.	16b	.	.	.	.	.	.	.
.	.	.	.	.	.	16cc	.	8r	.	8r	.	.	.
.	.	.	.	.	.	16ddJJ)	.	.	.	.	.	.	.
4r	.	.	.	.	.	(>16eeLL	.	8cc	.	8ee	.	.	.
.	.	.	.	.	.	16dd	.	.	.	.	.	.	.
.	.	.	.	.	.	16ee	.	8r	.	8r	.	.	.
.	.	.	.	.	.	16ff#JJ)	.	.	.	.	.	.	.
4C#X	7 5	.	.	.	.	8ggL	-ve	8r	.	8ggL	.	.	.
.	.	.	.	.	.	8bJ	.	8g	.	8bJ	.	.	.
!	!	!	!	!	!	!LO:LB:g=original	!	!	!	!	!	!	!
=20	=20	=20	=20	=20	=20	=20	=20	=20	=20	=20	=20	=20	=20
*	*	*	*	*	*	*	*	*	*	*tremolo	*	*	*
8r	.	.	.	2g	Sal-	2b	Sal-	2g	.	8bL/	.	1r	1r
8dL	6 4	.	.	.	.	.	.	.	.	8b	.	.	.
8c#X	.	.	.	.	.	.	.	.	.	8b	.	.	.
8dJ	.	.	.	.	.	.	.	.	.	8bJ	.	.	.
4D	5 3	.	.	4f#	-ve	4a	-ve	4f#	.	4a	.	.	.
4r	.	.	.	4a	ad	4a	ad	4r	.	4r	.	.	.
*	*	*	*	*	*	*	*	*	*	*Xtremolo	*	*	*
!LO:LB:g=original	!	!	!	!	!	!	!	!LO:LB:g=original	!	!LO:LB:g=original	!	!	!
=21	=21	=21	=21	=21	=21	=21	=21	=21	=21	=21	=21	=21	=21
4D	.	.	.	2f#	te	2dd	te	8dL	.	8f#L	.	1r	1r
.	.	.	.	.	.	.	.	8f#	.	8a	.	.	.
4r	.	.	.	.	.	.	.	8d	.	8f#	.	.	.
.	.	.	.	.	.	.	.	8f#J	.	8aJ	.	.	.
4D	.	.	.	8f#L/	.	8ddL	.	8dL	.	8f#L	.	.	.
.	.	.	.	8aJ	.	8ff#J	.	8f#	.	8a	.	.	.
4r	.	.	.	8gL	cla-	8eeL	cla-	8d	.	8f#	.	.	.
.	.	.	.	8f#J	.	8ddJ	.	8f#J	.	8aJ	.	.	.
=22	=22	=22	=22	=22	=22	=22	=22	=22	=22	=22	=22	=22	=22
4AA	#	.	.	8f#L	-ma-	8ddL	-ma-	8c#XL	.	8eL	.	1r	1r
.	.	.	.	8eJ	.	8cc#XJ	.	8e	.	8aJ	.	.	.
4r	.	.	.	2e	-mus	2cc#X	-mus	8c#	.	8eL	.	.	.
.	.	.	.	.	.	.	.	8eJ	.	8aJ	.	.	.
4A	#	.	.	.	.	.	.	8c#L	.	8eL	.	.	.
.	.	.	.	.	.	.	.	8e	.	8aJ	.	.	.
4r	.	.	.	4a	ex-	4a	ex-	8c#	.	8eL	.	.	.
.	.	.	.	.	.	.	.	8eJ	.	8aJ	.	.	.
!	!	!	!	!LO:LB:g=original	!	!	!	!	!	!	!	!	!
=23	=23	=23	=23	=23	=23	=23	=23	=23	=23	=23	=23	=23	=23
*	*	*	*	*	*	*	*	*tremolo	*	*	*	*	*
4C#X	6_ 5_	.	.	4g/	.	4ee	.	8eL	.	8gL	.	1r	1r
.	.	.	.	.	.	.	.	8e	.	8aJ	.	.	.
4r	.	.	.	8g/	-u-	8ee	-u-	8e	.	8gL	.	.	.
.	.	.	.	8g/	-les	8ee	-les	8eJ	.	8aJ	.	.	.
4C#	x	.	.	8gL	fi-	8eeL	fi-	8eL	.	8gL	.	.	.
.	.	.	.	8bJ	.	8ggJ	.	8e	.	8aJ	.	.	.
4r	.	.	.	8aL	-li-	8ff#L	-li-	8e	.	8gL	.	.	.
.	.	.	.	8gJ	-i	8eeJ	-i	8eJ	.	8aJ	.	.	.
*	*	*	*	*	*	*	*	*Xtremolo	*	*	*	*	*
!	!	!	!	!	!	!LO:LB:g=original	!	!	!	!	!	!	!
=24	=24	=24	=24	=24	=24	=24	=24	=24	=24	=24	=24	=24	=24
4D	.	.	.	8gL	E-	8eeL	E-	8dL	.	8f#L	.	1r	1r
.	.	.	.	8f#J	.	8ddJ	.	8f#	.	8a	.	.	.
4r	.	.	.	2f#	-vae	2dd	-vae	8d	.	8f#	.	.	.
.	.	.	.	.	.	.	.	8f#J	.	8aJ	.	.	.
4d	.	.	.	.	.	.	.	8dL	.	8f#L	.	.	.
.	.	.	.	.	.	.	.	8f#	.	8a	.	.	.
4D	.	.	.	4f#	E-	4a	E-	8d	.	8f#	.	.	.
.	.	.	.	.	.	.	.	8f#J	.	8aJ	.	.	.
!	!	!	!	!	!	!	!	!	!	!LO:LB:g=original	!	!	!
=25	=25	=25	=25	=25	=25	=25	=25	=25	=25	=25	=25	=25	=25
*tremolo	*	*	*	*	*	*	*	*tremolo	*	*tremolo	*	*	*
8GL	.	.	.	8g	.	8b	.	8dL	.	8bL/	.	1r	1r
8G	.	.	.	4b	.	4dd	.	8d	.	8b	.	.	.
8G	.	.	.	.	.	.	.	8d	.	8b	.	.	.
8GJ	.	.	.	4g	.	4b	.	8dJ	.	8bJ	.	.	.
8GL	.	.	.	.	.	.	.	8dL	.	8bL/	.	.	.
8G	.	.	.	4b	.	4dd	.	8d	.	8b	.	.	.
8G	.	.	.	.	.	.	.	8d	.	8b	.	.	.
8GJ	.	.	.	8g	.	8b	.	8dJ	.	8bJ	.	.	.
=26	=26	=26	=26	=26	=26	=26	=26	=26	=26	=26	=26	=26	=26
4D	.	.	.	4f#	-vae	8aL	.	4f#	.	4a	.	1r	1r
.	.	.	.	.	.	16bL	.	.	.	.	.	.	.
.	.	.	.	.	.	16cc#XJJ	.	.	.	.	.	.	.
4r	.	.	.	4r	.	16ddLL	.	4r	.	4r	.	.	.
.	.	.	.	.	.	16ee	.	.	.	.	.	.	.
.	.	.	.	.	.	16ff#	.	.	.	.	.	.	.
.	.	.	.	.	.	16ggJJ	.	.	.	.	.	.	.
!	!	!	!	!LO:LB:g=original	!	!	!	!	!	!	!	!	!
2r	.	.	.	4r	.	8aaL	.	2r	.	2r	.	.	.
.	.	.	.	.	.	8ff#J	.	.	.	.	.	.	.
.	.	.	.	8r	.	8ddL\	-vae	.	.	.	.	.	.
.	.	.	.	8a	E-	8f#J/	.	.	.	.	.	.	.
!LO:LB:g=original	!	!	!	!	!	!	!	!	!	!	!	!	!
=27	=27	=27	=27	=27	=27	=27	=27	=27	=27	=27	=27	=27	=27
8GL	.	.	.	8b	.	8g	E-	8dL	.	8bL/	.	1r	1r
8G	.	.	.	4dd	.	4b	.	8d	.	8b	.	.	.
8G	.	.	.	.	.	.	.	8d	.	8b	.	.	.
8GJ	.	.	.	4b	.	4g	.	8dJ	.	8bJ	.	.	.
8GL	.	.	.	.	.	.	.	8dL	.	8bL/	.	.	.
8G	.	.	.	4dd	.	4b	.	8d	.	8b	.	.	.
8G	.	.	.	.	.	.	.	8d	.	8b	.	.	.
8GJ	.	.	.	8b	.	8g	.	8dJ	.	8bJ	.	.	.
*Xtremolo	*	*	*	*	*	*	*	*Xtremolo	*	*Xtremolo	*	*	*
!	!	!	!	!	!	!LO:LB:g=original	!	!	!	!	!	!	!
=28	=28	=28	=28	=28	=28	=28	=28	=28	=28	=28	=28	=28	=28
4D	.	.	.	8aL	.	4f#	-vae	4f#	.	4a	.	1r	1r
.	.	.	.	16bL	.	.	.	.	.	.	.	.	.
.	.	.	.	16cc#XJJ	.	.	.	.	.	.	.	.	.
4r	.	.	.	16ddLL	.	4r	.	4r	.	4r	.	.	.
.	.	.	.	16ee	.	.	.	.	.	.	.	.	.
.	.	.	.	16ff#	.	.	.	.	.	.	.	.	.
.	.	.	.	16ggJJ	.	.	.	.	.	.	.	.	.
2r	.	.	.	8aaL	.	2r	.	2r	.	2r	.	.	.
.	.	.	.	8ff#J	.	.	.	.	.	.	.	.	.
.	.	.	.	8ddL	-vae	.	.	.	.	.	.	.	.
.	.	.	.	8aJ	.	.	.	.	.	.	.	.	.
=29	=29	=29	=29	=29	=29	=29	=29	=29	=29	=29	=29	=29	=29
2GG	.	.	.	8g	Ad	8b	ad	8dL	.	8bL	.	1r	1r
.	.	.	.	8b	te	8dd	te	8b	.	8dd	.	.	.
.	.	.	.	8b	sus-	8dd	sus-	8b	.	8dd	.	.	.
.	.	.	.	8b	-pi-	8dd	-pi-	8bJ	.	8ddJ	.	.	.
!	!	!	!	!LO:LB:g=original	!	!	!	!	!	!	!	!	!
2G	.	.	.	8bL	-ra-	8ddL	-ra-	(<8bL	.	(>8ddL	.	.	.
.	.	.	.	8aJ	.	8cc#XJ	.	8a)	.	8cc#X)	.	.	.
.	.	.	.	8a	-mus,	8cc#	-mus	(<8a	.	(>8cc#	.	.	.
.	.	.	.	8g	ge-	8b	ge-	8gJ)	.	8bJ)	.	.	.
=30	=30	=30	=30	=30	=30	=30	=30	=30	=30	=30	=30	=30	=30
2F#	6	.	.	8f#L/	-men-	8aL	-men-	4d 4f#	.	4a	.	1r	1r
.	.	.	.	8ff#J\	.	8aaJ	.	.	.	.	.	.	.
.	.	.	.	8ee	-tes	8gg	-tes	4r	.	4r	.	.	.
.	.	.	.	8dd	et	8ff#	et	.	.	.	.	.	.
2D	.	.	.	8ggL	flen-	8eeL	flen	2r	.	2r	.	.	.
.	.	.	.	8ff#	.	8dd	.	.	.	.	.	.	.
.	.	.	.	8ee	.	8cc#X	tes	.	.	.	.	.	.
.	.	.	.	8ff#J	.	8ddJ	.	.	.	.	.	.	.
!	!	!	!	!	!	!LO:LB:g=original	!	!LO:LB:g=original	!	!LO:LB:g=original	!	!	!
=31	=31	=31	=31	=31	=31	=31	=31	=31	=31	=31	=31	=31	=31
4GG	.	.	.	4gg	-tes	4b	et	1r	.	1r	.	1r	1r
4G	.	.	.	8eeL	et	8ggL	.	.	.	.	.	.	.
.	.	.	.	8cc#XJ	.	8eeJ	.	.	.	.	.	.	.
4A	4	.	.	2cc#t	flen-	2eeT	flen-	.	.	.	.	.	.
4AA	#3	.	.	.	.	.	.	.	.	.	.	.	.
=32	=32	=32	=32	=32	=32	=32	=32	=32	=32	=32	=32	=32	=32
4D	.	.	.	4dd	-tes	4dd	-tes	8dL	.	8f#L	.	1r	1r
.	.	.	.	.	.	.	.	8f#	.	8a	.	.	.
4D	.	.	.	4r	.	8dd	ad	8d	.	8f#	.	.	.
.	.	.	.	.	.	8ee	te	8f#J	.	8aJ	.	.	.
!	!	!	!	!LO:LB:g=original	!	!	!	!	!	!	!	!	!
4D	.	.	.	4dd	sus-	4ff#	sus-	8dL	.	8f#L	.	.	.
.	.	.	.	.	.	.	.	8f#	.	8a	.	.	.
4D	.	.	.	4dd	-pi-	4ff#	-pi-	8d	.	8f#	.	.	.
.	.	.	.	.	.	.	.	8f#J	.	8aJ	.	.	.
!LO:LB:g=original	!	!	!	!	!	!	!	!	!	!	!	!	!
=33	=33	=33	=33	=33	=33	=33	=33	=33	=33	=33	=33	=33	=33
*	*	*	*	*	*	*	*	*tremolo	*	*	*	*	*
4C#X	6 5	.	.	4ee	-ra-	4gg	-ra-	8AL	.	8eL	.	1r	1r
.	.	.	.	.	.	.	.	8A	.	8a	.	.	.
4D	.	.	.	12ddL	.	12ff#L	.	8A	.	8f#	.	.	.
.	.	.	.	12ee	.	12gg	.	.	.	.	.	.	.
.	.	.	.	.	.	.	.	8AJ	.	8aJ	.	.	.
.	.	.	.	12ddJ	.	12ff#J	.	.	.	.	.	.	.
4AA	#	.	.	4cc#X	-mus	4ee	-mus	8c#XL 8e	.	8eL	.	.	.
.	.	.	.	.	.	.	.	8c# 8e	.	8aJ	.	.	.
16A'LL	.	.	.	4r	.	4r	.	8c# 8e	.	8eL	.	.	.
16G'	.	.	.	.	.	.	.	.	.	.	.	.	.
16F#'	.	.	.	.	.	.	.	8c#J 8e	.	8aJ	.	.	.
16E'JJ	.	.	.	.	.	.	.	.	.	.	.	.	.
*	*	*	*	*	*	*	*	*Xtremolo	*	*	*	*	*
=34	=34	=34	=34	=34	=34	=34	=34	=34	=34	=34	=34	=34	=34
4D	.	.	.	4.dd	ge-	4.dd	ge-	8dL	.	8f#L	.	1r	1r
.	.	.	.	.	.	.	.	8f#	.	8a	.	.	.
4d	.	.	.	.	.	.	.	8d	.	8f#	.	.	.
.	.	.	.	8cc#X	.	8ee	.	8f#J	.	8aJ	.	.	.
4D	.	.	.	4dd	-men-	4ff#	-men-	8dL	.	8f#L	.	.	.
.	.	.	.	.	.	.	.	8f#	.	8a	.	.	.
4d	.	.	.	8dd	-tes	8ff#	-tes	8d	.	8f#	.	.	.
.	.	.	.	8dd	et	8ff#	et	8f#J	.	8aJ	.	.	.
!	!	!	!	!	!	!LO:LB:g=original	!	!	!	!	!	!	!
=35	=35	=35	=35	=35	=35	=35	=35	=35	=35	=35	=35	=35	=35
4C#X	6 5_	.	.	4ee	flen-	(>4gg	flen-	4c#X	.	8eL	.	1r	1r
.	.	.	.	.	.	.	.	.	.	8a	.	.	.
4D/	.	.	.	12ddL	.	12ff#L)	.	4B	.	8d	.	.	.
.	.	.	.	12ee	.	12gg	.	.	.	.	.	.	.
.	.	.	.	.	.	.	.	.	.	8aJ	.	.	.
.	.	.	.	12ddJ	.	12ff#J	.	.	.	.	.	.	.
4AA	4 x	.	.	4cc#X	-tes	4ee	-tes	2c#	.	8eL	.	.	.
.	.	.	.	.	.	.	.	.	.	8a	.	.	.
4A	.	.	.	8r	.	8r	.	.	.	8e	.	.	.
.	.	.	.	16cc#LL	in	16eeLL	in	.	.	8aJ	.	.	.
.	.	.	.	16ddJJ	.	16ff#JJ	.	.	.	.	.	.	.
!	!	!	!	!LO:LB:g=original	!	!	!	!	!	!LO:LB:g=original	!	!	!
=36	=36	=36	=36	=36	=36	=36	=36	=36	=36	=36	=36	=36	=36
4AA	7	.	.	8eeL	hac	8ggL	hac	4A	.	4A 4e	.	1r	1r
.	.	.	.	8ddJ	.	8ff#J	.	.	.	.	.	.	.
!	!	!	!	!LO:TX:a:t=problem:niewyraźny rękopis	!	!	!	!	!	!	!	!	!
4r	.	.	.	8cc#XiL	la-	8ee	la-	4r	.	4r	.	.	.
.	.	.	.	8bJ	-chri-	8dd	-chri-	.	.	.	.	.	.
4A	6 5	.	.	4a	-ma-	8cc#XL	-ma-	2r	.	2r	.	.	.
.	.	.	.	.	.	8aJ	.	.	.	.	.	.	.
4AA	5 3	.	.	8gL/	-rum	8bL	-rum	.	.	.	.	.	.
.	.	.	.	8aJ	.	8cc#J	.	.	.	.	.	.	.
!LO:LB:g=original	!	!	!	!	!	!	!	!LO:LB:g=original	!	!	!	!	!
=37	=37	=37	=37	=37	=37	=37	=37	=37	=37	=37	=37	=37	=37
4D	.	.	f	4f#	va-	4dd	va-	4.f#	???	4.dd	f	4d	4a
4D	.	.	.	4f#	-le	8dd	-le	.	.	.	.	8dL	8aL
.	.	.	.	.	.	8r	.	8a	.	8ee	.	8dJ	8aJ
4D	.	.	.	2r	.	2r	.	4dd	.	4ff#	.	4d	4a
4D	.	.	.	.	.	.	.	4dd	.	4ff#	.	4r	4r
=38	=38	=38	=38	=38	=38	=38	=38	=38	=38	=38	=38	=38	=38
4C#X	.	.	.	1r	.	1r	.	12eeL	.	12ggL	.	1r	1r
.	.	.	.	.	.	.	.	12ff#	.	12aa	.	.	.
.	.	.	.	.	.	.	.	12eeJ	.	12ggJ	.	.	.
4D	.	.	.	.	.	.	.	12ddL	.	12ff#L	.	.	.
.	.	.	.	.	.	.	.	12ee	.	12gg	.	.	.
.	.	.	.	.	.	.	.	12ddJ	.	12ff#J	.	.	.
8r	.	.	.	.	.	.	.	4cc#X	.	4ee	.	.	.
8AAL	.	.	.	.	.	.	.	.	.	.	.	.	.
8BB	.	.	.	.	.	.	.	8r	.	8r	.	.	.
8C#J	.	.	.	.	.	.	.	8cc#	.	8ee	.	.	.
=39	=39	=39	=39	=39	=39	=39	=39	=39	=39	=39	=39	=39	=39
4D	.	.	.	1r	.	1r	.	4dd	.	4ff#	.	4d	4a
4d	.	.	.	.	.	.	.	16ddLL	.	16ff#LL	.	4r	4r
.	.	.	.	.	.	.	.	16cc#X	.	16ee	.	.	.
.	.	.	.	.	.	.	.	16dd	.	16ff#	.	.	.
.	.	.	.	.	.	.	.	16eeJJ	.	16ggJJ	.	.	.
4D	.	.	.	.	.	.	.	4ff#	.	4aa	.	4d	4a
!	!	!	!	!	!	!	!	!LO:SIC:s=4dd	!	!	!	!	!
4d	.	.	.	.	.	.	.	4ff#	.	4ff#	.	4r	4r
!	!	!	!	!	!	!	!	!	!	!LO:LB:g=original	!	!	!
=40	=40	=40	=40	=40	=40	=40	=40	=40	=40	=40	=40	=40	=40
4e	4_ 3_	.	.	1r	.	1r	.	4ee	.	4gg	.	4B	4g
4A	x	.	.	.	.	.	.	16eeLL	.	16ggLL	.	4r	4r
.	.	.	.	.	.	.	.	16dd	.	16ff#	.	.	.
.	.	.	.	.	.	.	.	16ee	.	16gg	.	.	.
.	.	.	.	.	.	.	.	16ff#JJ	.	16aaJJ	.	.	.
!	!	!	!	!	!	!	!	!LO:LB:g=original	!	!	!	!LO:LB:g=original	!
4c#X	4 5	.	.	.	.	.	.	4gg	.	4bb	.	4g	4b
4c#	5 3	.	.	.	.	.	.	4ee	.	4gg	.	4r	4r
=41	=41	=41	=41	=41	=41	=41	=41	=41	=41	=41	=41	=41	=41
4d	.	.	.	1r	.	1r	.	8aL	.	8ff#L	.	1r	1r
.	.	.	.	.	.	.	.	8f#	.	8dd	.	.	.
4G	.	.	.	.	.	.	.	8b	.	8gg	.	.	.
.	.	.	.	.	.	.	.	8gJ	.	8eeJ	.	.	.
!LO:LB:g=original	!	!	!	!	!	!	!	!	!	!	!	!	!
4A	4	.	.	.	.	.	.	2gT	.	2eeT	.	.	.
4AA	#3	.	.	.	.	.	.	.	.	.	.	.	.
=42	=42	=42	=42	=42	=42	=42	=42	=42	=42	=42	=42	=42	=42
4D	.	.	f	1r	.	1r	.	4.f#	.	4.dd	f	4d	4a
4D	.	.	.	.	.	.	.	.	.	.	.	8dL	8aL
.	.	.	.	.	.	.	.	8a	.	8ee	.	8dJ	8aJ
4D	.	.	.	.	.	.	.	4dd	.	4ff#	.	4d	4a
4D	.	.	.	.	.	.	.	4dd	.	4ff#	.	4r	4r
=43	=43	=43	=43	=43	=43	=43	=43	=43	=43	=43	=43	=43	=43
4C#X	.	.	.	1r	.	1r	.	12eeL	.	12ggL	.	1r	1r
.	.	.	.	.	.	.	.	12ff#	.	12aa	.	.	.
.	.	.	.	.	.	.	.	12eeJ	.	12ggJ	.	.	.
4D/	.	.	.	.	.	.	.	12ddL	.	12ff#L	.	.	.
.	.	.	.	.	.	.	.	12ee	.	12gg	.	.	.
.	.	.	.	.	.	.	.	12ddJ	.	12ff#J	.	.	.
8r	.	.	.	.	.	.	.	4cc#X	.	4ee	.	.	.
8AAL	.	.	.	.	.	.	.	.	.	.	.	.	.
8BB	.	.	.	.	.	.	.	8r	.	8r	.	.	.
8C#J	.	.	.	.	.	.	.	8cc#	.	8ee	.	.	.
=44	=44	=44	=44	=44	=44	=44	=44	=44	=44	=44	=44	=44	=44
4D	.	.	.	1r	.	1r	.	4dd	.	4ff#	.	4d	4a
4d	.	.	.	.	.	.	.	16ddLL	.	16ff#LL	.	4r	4r
.	.	.	.	.	.	.	.	16cc#X	.	16ee	.	.	.
.	.	.	.	.	.	.	.	16dd	.	16ff#	.	.	.
.	.	.	.	.	.	.	.	16eeJJ	.	16ggJJ	.	.	.
4D	.	.	.	.	.	.	.	4ff#	.	4aa	.	4d	4a
!	!	!	!	!	!	!	!	!LO:SIC:s=4dd	!	!	!	!	!
4d	.	.	.	.	.	.	.	4ff#	.	4ff#	.	4r	4r
!	!	!	!	!	!	!	!	!	!	!LO:LB:g=original	!	!	!
=45	=45	=45	=45	=45	=45	=45	=45	=45	=45	=45	=45	=45	=45
4e	4_ 3_	.	.	1r	.	1r	.	4ee	.	4gg	.	4B	4g
4A	x	.	.	.	.	.	.	16eeLL	.	16ggLL	.	4r	4r
.	.	.	.	.	.	.	.	16dd	.	16ff#	.	.	.
.	.	.	.	.	.	.	.	16ee	.	16gg	.	.	.
.	.	.	.	.	.	.	.	16ff#JJ	.	16aaJJ	.	.	.
!	!	!	!	!	!	!	!	!LO:LB:g=original	!	!	!	!LO:LB:g=original	!
4c#X	4 5	.	.	.	.	.	.	4gg	.	4bb	.	4g	4b
4c#	5 3	.	.	.	.	.	.	4ee	.	4gg	.	4r	4r
=46	=46	=46	=46	=46	=46	=46	=46	=46	=46	=46	=46	=46	=46
4d	.	.	.	1r	.	1r	.	8aL	.	8ff#L	.	1r	1r
.	.	.	.	.	.	.	.	8f#	.	8dd	.	.	.
4G	.	.	.	.	.	.	.	8b	.	8gg	.	.	.
.	.	.	.	.	.	.	.	8gJ	.	8eeJ	.	.	.
!LO:LB:g=original	!	!	!	!	!	!	!	!	!	!	!	!	!
4A	4	.	.	.	.	.	.	2gT	.	2eeT	.	.	.
4AA	#3	.	.	.	.	.	.	.	.	.	.	.	.
=47	=47	=47	=47	=47	=47	=47	=47	=47	=47	=47	=47	=47	=47
8DL	.	.	f	1r	.	1r	.	8f#L/	.	8ddL	.	4d	4d
8d`J	.	.	.	.	.	.	.	8ddJ\	.	8ddJ	.	.	.
8d`L	.	.	.	.	.	.	.	8ddL	.	8ddL	.	4d	4d
16c`L	.	.	.	.	.	.	.	16cc#XL	.	16cc#XL	.	.	.
16B`JJ	.	.	.	.	.	.	.	16bJJ	.	16bJJ	.	.	.
8A`L	.	.	.	.	.	.	.	8aL	.	8aL	.	4d	4d
8A`J	.	.	.	.	.	.	.	8aJ	.	8aJ	.	.	.
8A`L	.	.	.	.	.	.	.	8aL	.	8aL	.	4r	4r
16G`L	.	.	.	.	.	.	.	16gL	.	16gL	.	.	.
16F#`JJ	.	.	.	.	.	.	.	16f#JJ	.	16f#JJ	.	.	.
=48	=48	=48	=48	=48	=48	=48	=48	=48	=48	=48	=48	=48	=48
*	*	*	*	*	*	*	*	*	*	*clefC1	*	*	*
8B`L	.	.	.	1r	.	1r	.	8bL	.	8bL	.	4g	4b
8B`J	.	.	.	.	.	.	.	8bJ	.	8bJ	.	.	.
8B`L	.	.	.	.	.	.	.	8bL	.	8bL	.	4r	4r
16A`L	.	.	.	.	.	.	.	16aL	.	16aL	.	.	.
16G`JJ	.	.	.	.	.	.	.	16gJJ	.	16gJJ	.	.	.
!	!	!	!	!	!	!	!	!	!	!LO:LB:g=original	!	!	!
8F#`L	.	.	.	.	.	.	.	8f#L	.	8f#L	.	2r	2r
8F#`J	.	.	.	.	.	.	.	8f#J	.	8f#J	.	.	.
!	!	!	!	!	!	!	!	!LO:LB:g=original	!	!	!	!	!
8F#`L	.	.	.	.	.	.	.	8f#L	.	8f#L	.	.	.
16E`L	.	.	.	.	.	.	.	16eL	.	16eL	.	.	.
16D`JJ	.	.	.	.	.	.	.	16dJJ	.	16dJJ	.	.	.
*	*	*	*	*	*	*	*	*	*	*clefG2	*	*	*
=49	=49	=49	=49	=49	=49	=49	=49	=49	=49	=49	=49	=49	=49
16G`LL	.	.	.	1r	.	1r	.	16gLL	.	16gLL	.	1r	1r
16F#`	.	.	.	.	.	.	.	16f#	.	16f#	.	.	.
16G`	.	.	.	.	.	.	.	16g	.	16g	.	.	.
16A`JJ	.	.	.	.	.	.	.	16aJJ	.	16aJJ	.	.	.
16B`LL	.	.	.	.	.	.	.	16bLL	.	16bLL	.	.	.
16A`	.	.	.	.	.	.	.	16a	.	16a	.	.	.
16B`	.	.	.	.	.	.	.	16b	.	16b	.	.	.
16c#X`JJ	.	.	.	.	.	.	.	16cc#XJJ	.	16cc#XJJ	.	.	.
!LO:LB:g=original	!	!	!	!	!	!	!	!	!	!	!	!	!
4d	.	.	.	.	.	.	.	16ddLL	.	16ddLL	.	.	.
.	.	.	.	.	.	.	.	16cc#	.	16cc#	.	.	.
.	.	.	.	.	.	.	.	16dd	.	16dd	.	.	.
.	.	.	.	.	.	.	.	16eeJJ	.	16eeJJ	.	.	.
4r	.	.	.	.	.	.	.	16ff#LL	.	16ff#LL	.	.	.
.	.	.	.	.	.	.	.	16ee	.	16ee	.	.	.
.	.	.	.	.	.	.	.	16ff#	.	16ff#	.	.	.
.	.	.	.	.	.	.	.	16ggJJ	.	16ggJJ	.	.	.
=50	=50	=50	=50	=50	=50	=50	=50	=50	=50	=50	=50	=50	=50
*tremolo	*	*	*	*	*	*	*	*tremolo	*	*	*	*	*
8F#L	6	.	.	1r	.	1r	.	8ddL	.	4aa	.	1r	1r
8F#	.	.	.	.	.	.	.	8dd	.	.	.	.	.
8F#	.	.	.	.	.	.	.	8dd	.	16ggLL	.	.	.
.	.	.	.	.	.	.	.	.	.	16ff#	.	.	.
8F#J	.	.	.	.	.	.	.	8ddJ	.	16ee	.	.	.
.	.	.	.	.	.	.	.	.	.	16ddJJ	.	.	.
*Xtremolo	*	*	*	*	*	*	*	*Xtremolo	*	*	*	*	*
8GL	6_ 5_	.	.	.	.	.	.	8ddL	.	2eeT	.	.	.
8G	x	.	.	.	.	.	.	8dd	.	.	.	.	.
8A	#	.	.	.	.	.	.	8cc#X	.	.	.	.	.
8AJ	.	.	.	.	.	.	.	8cc#J	.	.	.	.	.
!	!	!	!	!	!	!	!	!	!	!LO:LB:g=original	!	!	!
=51	=51	=51	=51	=51	=51	=51	=51	=51	=51	=51	=51	=51	=51
4D/	.	.	.	1r	.	1r	.	8f#L	.	8ddL	.	4d	4a
.	.	.	.	.	.	.	.	8a	.	8ff#	.	.	.
4AA	#	.	.	.	.	.	.	8g	.	8ee	.	4r	4r
.	.	.	.	.	.	.	.	8eJ	.	8cc#XJ	.	.	.
!	!	!	!	!	!	!	!	!LO:LB:g=original	!	!	!	!	!
4D/	.	.	.	.	.	.	.	8f#L	.	8ddL	.	4d	4a
.	.	.	.	.	.	.	.	8a	.	8ff#	.	.	.
4AA	#	.	.	.	.	.	.	8g	.	8ee	.	4r	4r
.	.	.	.	.	.	.	.	8eJ	.	8cc#J	.	.	.
=52	=52	=52	=52	=52	=52	=52	=52	=52	=52	=52	=52	=52	=52
8DL	.	.	.	2r	.	2r	.	4f#	.	4dd	.	4d	4a
8d	.	.	.	.	.	.	.	.	.	.	.	.	.
8A	.	.	.	.	.	.	.	8aL 8ff#	.	8ff#L 8ddd	.	8dL	8aL
8F#J	.	.	.	.	.	.	.	8aJ 8ff#	.	8ff#J 8ddd	.	8dJ	8aJ
4D	.	.	.	4r	.	4r	.	4a 4ff#	.	4ff# 4ddd	.	4d	4a
4r	.	.	.	16f#LL	e-	16aLL	e-	4r	.	4r	.	4r	4r
.	.	.	.	16gJJ	.	16bJJ	.	.	.	.	.	.	.
.	.	.	.	16f#LL	-ja	16aLL	-ja	.	.	.	.	.	.
.	.	.	.	16eJJ	.	16gJJ	.	.	.	.	.	.	.
!	!	!	!	!LO:LB:g=original	!	!	!	!	!	!	!	!	!
=53	=53	=53	=53	=53	=53	=53	=53	=53	=53	=53	=53	=53	=53
*tremolo	*	*	*	*	*	*	*	*	*	*	*	*	*
8DL	.	.	p	4d	er-	4f#	er-	8f#L	p	8aL	p	1r	1r
8D	.	.	.	.	.	.	.	8f#	.	8a	.	.	.
8D	.	.	.	16dLL	-go	16f#LL	-go	8f#	.	8a	.	.	.
.	.	.	.	16e	.	16g	.	.	.	.	.	.	.
8DJ	.	.	.	16f#	.	16a	.	8gJ	.	8bJ	.	.	.
.	.	.	.	16gJJ	.	16bJJ	.	.	.	.	.	.	.
8DL	n7	.	.	8a	ad-	8cc	ad-	8aL\	.	8ccnL	.	.	.
8D	.	.	.	16gLL	-vo-	16bLL	-vo-	8a	.	8cc	.	.	.
.	.	.	.	16aJJ	.	16ccJJ	.	.	.	.	.	.	.
8D	.	.	.	8b	-ca-	8dd	-ca-	8b	.	8dd	.	.	.
8DJ	.	.	.	8a	-ta	8cc	-ta	8aJ	.	8ccJ	.	.	.
*Xtremolo	*	*	*	*	*	*	*	*	*	*	*	*	*
=54	=54	=54	=54	=54	=54	=54	=54	=54	=54	=54	=54	=54	=54
8r	.	.	.	8aL	nos-	8ccL	nos-	8dL 8a	???	(>8ccL	.	1r	1r
8GL	.	.	.	8gJ	.	8bJ	.	8d	.	8b)	.	.	.
8G	.	.	.	2g	-tra	2b	-tra	8d	.	8b'	.	.	.
8GJ	.	.	.	.	.	.	.	8dJ	.	8b'J	.	.	.
!LO:LB:g=original	!	!	!	!	!	!	!	!	!	!LO:LB:g=original	!	!	!
4G	.	.	.	.	.	.	.	4d	.	4d 4b	.	.	.
4r	.	.	.	16gLL	il-	16eeLL	il-	4r	.	4r	.	.	.
.	.	.	.	16f#	.	16dd#X	.	.	.	.	.	.	.
.	.	.	.	16g	.	16ee	.	.	.	.	.	.	.
.	.	.	.	16aJJ	.	16ff#JJ	.	.	.	.	.	.	.
!	!	!	!	!	!	!LO:LB:g=original	!	!LO:LB:g=original	!	!	!	!	!
=55	=55	=55	=55	=55	=55	=55	=55	=55	=55	=55	=55	=55	=55
4E	5	.	.	4b	-los	4gg	-los	4b/	.	4gg	.	1r	1r
4r	.	.	.	16gLL/	mi-	16eeLL	mi-	16gLL	.	(>16eeLL	.	.	.
.	.	.	.	16f#	.	16dd#X	.	16f#	.	16dd#X	.	.	.
.	.	.	.	16g	.	16ee	.	16g	.	16ee	.	.	.
.	.	.	.	16aJJ	.	16ff#JJ	.	16aJJ	.	16ff#JJ)	.	.	.
!	!	!	!	!LO:LB:g=original	!	!	!	!	!	!	!	!	!
8r	.	.	.	8b	-se-	8gg	-se-	(<8bL	.	(>8ggL	.	.	.
8AL	6_	.	.	8a	-ri-	8ff#	-ri-	8a)	.	8ff#)	.	.	.
8A	x	.	.	8a	-cor-	8ff#	-cor-	(<8a	.	(>8ff#	.	.	.
8A#XJ	7 5	.	.	8g	-des	8ee	-des	8gJ)	.	8eeJ)	.	.	.
=56	=56	=56	=56	=56	=56	=56	=56	=56	=56	=56	=56	=56	=56
8r	.	.	.	8g/	o-	8ee	o-	4g	.	4ee	.	1r	1r
8BL\	#_	.	.	8g/	-cu-	8ee	-cu-	.	.	.	.	.	.
8BB/	.	.	.	4f#	-los	4dd#X	-los	8f#L/	.	8dd#XL	.	.	.
8BBJ/	x	.	.	.	.	.	.	8dd#XJ\	.	8bbJ	.	.	.
4BB	.	.	.	4r	.	4r	.	4f# 4dd#\	.	4b 4bb	.	.	.
4r	.	.	.	4r	.	4b	ad	4r	.	4r	.	.	.
=57	=57	=57	=57	=57	=57	=57	=57	=57	=57	=57	=57	=57	=57
4E	.	.	.	1r	.	12b'L	.	4g	.	4b	.	1r	1r
.	.	.	.	.	.	12cc'	.	.	.	.	.	.	.
.	.	.	.	.	.	12b'J	.	.	.	.	.	.	.
4r	.	.	.	.	.	12b'L	.	4r	.	4r	.	.	.
.	.	.	.	.	.	12cc'	.	.	.	.	.	.	.
.	.	.	.	.	.	12b'J	.	.	.	.	.	.	.
8r	.	.	.	.	.	4ee	nos	8r	.	8r	.	.	.
8EL	.	.	.	.	.	.	.	8gL	.	8bL/	.	.	.
8E	.	.	.	.	.	4r	.	8g	.	8b	.	.	.
8EJ	.	.	.	.	.	.	.	8gJ	.	8bJ	.	.	.
!	!	!	!	!	!	!LO:LB:g=original	!	!	!	!LO:LB:g=original	!	!	!
=58	=58	=58	=58	=58	=58	=58	=58	=58	=58	=58	=58	=58	=58
4D#X	7 5	.	.	2r	.	12cc'L	ad	4f# 4a	.	4cc	.	1r	1r
.	.	.	.	.	.	12dd'	.	.	.	.	.	.	.
.	.	.	.	.	.	12cc'J	.	.	.	.	.	.	.
4r	.	.	.	.	.	12cc'L	.	4r	.	4r	.	.	.
.	.	.	.	.	.	12dd'	.	.	.	.	.	.	.
.	.	.	.	.	.	12cc'J	.	.	.	.	.	.	.
!LO:LB:g=original	!	!	!	!	!	!	!	!	!	!	!	!	!
8r	.	.	.	4r	.	4ff#	nos	8r	.	8r	.	.	.
!	!	!	!	!	!	!	!	!LO:LB:g=original	!	!	!	!	!
8F#L	5_	.	.	.	.	.	.	8aL	.	8ccL	.	.	.
8F#	x	.	.	8r	.	8r	.	8a	.	8cc	.	.	.
8F#J	6|	.	.	8ff#	ad-	8dd#X	ad	8aJ	.	8dd#XJ	.	.	.
=59	=59	=59	=59	=59	=59	=59	=59	=59	=59	=59	=59	=59	=59
8GL	6	.	.	4gg	-nos-	4ee	nos	8eL 8b	.	4ee	.	1r	1r
8G	.	.	.	.	.	.	.	8eJ 8b	.	.	.	.	.
8A	.	.	.	12aaL	-con-	12ccL	con-	8eL	.	12ccL	.	.	.
.	.	.	.	12gg	.	12b	.	.	.	12b	.	.	.
8AJ	.	.	.	.	.	.	.	8f#J	.	.	.	.	.
.	.	.	.	12ff#J	.	12aJ	.	.	.	12aJ	.	.	.
!	!	!	!	!LO:LB:g=original	!	!	!	!	!	!	!	!	!
8BL\	6 4	.	.	4ee	-ver-	4g/	-ver-	4e	.	4g	.	.	.
8B\	.	.	.	.	.	.	.	.	.	.	.	.	.
8BB/	5 #	.	.	4dd#X	.	4f#	.	4d#X	.	4f#	.	.	.
8BBJ/	.	.	.	.	.	.	.	.	.	.	.	.	.
!	!	!	!	!	!	!	!	!	!	!	!	!LO:LB:g=original	!
=60	=60	=60	=60	=60	=60	=60	=60	=60	=60	=60	=60	=60	=60
8EL	.	.	.	4ee	-te	4e	-te	8GL 8e/	.	8eL/	.	2r	2r
8e	3	.	.	.	.	.	.	8gg\	.	8gg\	.	.	.
8d	3	.	.	4r	.	4r	.	8ff#\	.	8ff#\	.	.	.
8cJ	3	.	.	.	.	.	.	8eeJ\	.	8eeJ\	.	.	.
8BL	3	.	.	2r	.	2r	.	8ddL	.	8ddL	.	8bL	8ddL
8A	3	.	.	.	.	.	.	8cc	.	8cc	.	8a	8cc
8G	3	.	.	.	.	.	.	8b	.	8b	.	8g	8b
8F#J	3	.	.	.	.	.	.	8aJ	.	8aJ	.	8dJ	8aJ
=61	=61	=61	=61	=61	=61	=61	=61	=61	=61	=61	=61	=61	=61
*tremolo	*	*	*	*	*	*	*	*tremolo	*	*tremolo	*	*	*
8GL	.	.	.	1r	.	2.g/	et	8dL	p	8bL/	p	4B	4g
8G	.	.	.	.	.	.	.	8d	.	8b	.	.	.
8G	.	.	.	.	.	.	.	8d	.	8b	.	4r	4r
8GJ	.	.	.	.	.	.	.	8dJ	.	8bJ	.	.	.
8GL	.	.	.	.	.	.	.	8dL	.	8bL/	.	2r	2r
8G	.	.	.	.	.	.	.	8d	.	8b	.	.	.
8G	.	.	.	.	.	8aL	.	8d	.	8b	.	.	.
8GJ	.	.	.	.	.	8bJ	.	8dJ	.	8bJ	.	.	.
*Xtremolo	*	*	*	*	*	*	*	*	*	*	*	*	*
!	!	!	!	!	!	!	!	!	!	!LO:PB:g=original	!	!	!
=62	=62	=62	=62	=62	=62	=62	=62	=62	=62	=62	=62	=62	=62
8r	.	.	.	1r	.	8bL	Je-	8f#L	.	8aL	.	1r	1r
8DL	.	.	.	.	.	8aJ	.	8f#	.	8a	.	.	.
!	!	!	!	!	!	!LO:LB:g=original	!	!	!	!	!	!	!
8D	.	.	.	.	.	2a	.	8f#	.	8a	.	.	.
8DJ	.	.	.	.	.	.	.	8f#J	.	8aJ	.	.	.
!LO:LB:g=original	!	!	!	!	!	!	!	!	!	!	!	!	!
2D	.	.	.	.	.	.	.	4f#	.	4a	.	.	.
.	.	.	.	.	.	4d	-sum	4r	.	4r	.	.	.
*	*	*	*	*	*	*	*	*Xtremolo	*	*Xtremolo	*	*	*
!	!	!	!	!	!	!	!	!LO:PB:g=original	!	!	!	!	!
=63	=63	=63	=63	=63	=63	=63	=63	=63	=63	=63	=63	=63	=63
8r	.	.	.	4f#	be-	4a	be-	8r	.	8r	.	1r	1r
8DL	.	.	.	.	.	.	.	8f#L	.	8aL	.	.	.
8D	.	.	.	4f#	-ne-	4a	-ne-	8f#	.	8a	.	.	.
8DJ	.	.	.	.	.	.	.	8f#J	.	8aJ	.	.	.
*tremolo	*	*	*	*	*	*	*	*	*	*	*	*	*
8DL	.	.	.	4f#	-dic-	4a	-dic-	8f#L	.	8aL\	.	.	.
8D	.	.	.	.	.	.	.	8f#	.	8a	.	.	.
8D	.	.	.	8gL/	-tum	8bL	-tum	8g	.	8b	.	.	.
8DJ	.	.	.	8aJ	.	8ccJ	.	8aJ	.	8ccJ	.	.	.
*Xtremolo	*	*	*	*	*	*	*	*	*	*	*	*	*
=64	=64	=64	=64	=64	=64	=64	=64	=64	=64	=64	=64	=64	=64
4G	.	.	.	8gL	fruc-	8bL	fruc-	4d	.	4b	.	1r	1r
.	.	.	.	8bJ	.	8ddJ	.	.	.	.	.	.	.
4r	.	.	.	4b	-tum	4dd	-tum	4r	.	4r	.	.	.
4r	.	.	.	8bL	ven-	8ddL	ven-	4r	.	4r	.	.	.
.	.	.	.	8aJ	.	8ccJ	.	.	.	.	.	.	.
4D	.	.	.	8gL	-tris	8bL	-tris	4f#	.	4a	.	.	.
.	.	.	.	8f#J	.	8aJ	.	.	.	.	.	.	.
!	!	!	!	!LO:LB:g=original	!	!	!	!	!	!	!	!	!
=65	=65	=65	=65	=65	=65	=65	=65	=65	=65	=65	=65	=65	=65
4G	.	.	.	8gL	fruc-	8bL	fruc-	4d	.	4b/	.	1r	1r
.	.	.	.	8bJ	.	8ddJ	.	.	.	.	.	.	.
4r	.	.	.	4b	-tum	4dd	-tum	4r	.	4r	.	.	.
!	!	!	!	!	!	!LO:LB:g=original	!	!	!	!	!	!	!
4r	.	.	.	8bL	ven-	8ddL	ven-	4r	.	4r	.	.	.
.	.	.	.	8aJ	.	8ccJ	.	.	.	.	.	.	.
4D	.	.	.	8gL	-tris	8bL	-tris	4f#	.	4a	.	.	.
.	.	.	.	8f#J	.	8aJ	.	.	.	.	.	.	.
=66	=66	=66	=66	=66	=66	=66	=66	=66	=66	=66	=66	=66	=66
4G	.	.	.	4g	ven	16bLL	ven-	4d	.	4b/	.	1r	1r
.	.	.	.	.	.	16g	.	.	.	.	.	.	.
.	.	.	.	.	.	16a	.	.	.	.	.	.	.
.	.	.	.	.	.	16bJJ	.	.	.	.	.	.	.
4r	.	.	.	4r	.	16ccLL	.	4r	.	4r	.	.	.
.	.	.	.	.	.	16dd	.	.	.	.	.	.	.
.	.	.	.	.	.	16ee	.	.	.	.	.	.	.
.	.	.	.	.	.	16ff#JJ	.	.	.	.	.	.	.
!	!	!	!	!	!	!	!	!	!	!LO:LB:g=original	!	!	!
4r	.	.	.	4r	.	4gg	.	4r	.	4r	.	.	.
4C#X	7	.	.	4g/	tris	4b	-tris	4g	.	4b/	.	.	.
=67	=67	=67	=67	=67	=67	=67	=67	=67	=67	=67	=67	=67	=67
8DL	6 4	.	.	4g/	tu-	4b	tu-	(<4g	.	(<4b/	.	1r	1r
8d	.	.	.	.	.	.	.	.	.	.	.	.	.
.	.	.	.	.	.	16qqa/LL	.	.	.	.	.	.	.
.	.	.	.	.	.	16qqb/JJ	.	.	.	.	.	.	.
8D	5 3	.	.	4f#	-i	4a	-i	8f#L)	.	8dL) 8a	.	.	.
8DJ	.	.	.	.	.	.	.	8f#J	.	8dJ 8a	.	.	.
8DL	.	.	.	2r	.	2r	.	4f#	.	4d 4a	.	.	.
8Cn	.	.	.	.	.	.	.	.	.	.	.	.	.
8BB	.	.	.	.	.	.	.	4r	.	4r	.	.	.
8AAJ	.	.	.	.	.	.	.	.	.	.	.	.	.
!LO:PB:g=original	!	!	!	!	!	!	!	!LO:LB:g=original	!	!	!	!	!
=68	=68	=68	=68	=68	=68	=68	=68	=68	=68	=68	=68	=68	=68
4G	.	.	.	2re	.	4.g	no-	8GL	.	8BL	.	1r	1r
.	.	.	.	.	.	.	.	8B	.	8d	.	.	.
4r	.	.	.	.	.	.	.	8G	.	8B	.	.	.
.	.	.	.	.	.	8a	.	8BJ	.	8dJ	.	.	.
!	!	!	!	!LO:LB:g=original	!	!	!	!	!	!	!	!	!
4GG	.	.	.	4g/	no-	4b	.	8GL	.	8BL	.	.	.
.	.	.	.	.	.	.	.	8B	.	8d	.	.	.
4r	.	.	.	4g/	-bis	4b	-bis	8G	.	8B	.	.	.
.	.	.	.	.	.	.	.	8BJ	.	8dJ	.	.	.
!	!	!	!	!	!	!LO:LB:g=original	!	!	!	!	!	!	!
=69	=69	=69	=69	=69	=69	=69	=69	=69	=69	=69	=69	=69	=69
4D	.	.	.	4a/	no-	4cc	no-	8dL	.	8AL	.	1r	1r
.	.	.	.	.	.	.	.	8f#J	.	8d	.	.	.
4r	.	.	.	12gL/	.	12bL	.	4g	.	8A	.	.	.
.	.	.	.	12a	.	12cc	.	.	.	.	.	.	.
.	.	.	.	.	.	.	.	.	.	8dJ	.	.	.
.	.	.	.	12gJ	.	12bJ	.	.	.	.	.	.	.
8r	.	.	.	4f#	-bis	4a	-bis	2f#	.	8AL	.	.	.
8DL	.	.	.	.	.	.	.	.	.	8d	.	.	.
8F#	.	.	.	4r	.	4r	.	.	.	8A	.	.	.
8DJ	.	.	.	.	.	.	.	.	.	8dJ	.	.	.
=70	=70	=70	=70	=70	=70	=70	=70	=70	=70	=70	=70	=70	=70
!!linebreak:original
4G	.	.	.	4.g	post	4.b	post	8gL	.	8bL	.	1r	1r
.	.	.	.	.	.	.	.	8g	.	8b	.	.	.
4r	.	.	.	.	.	.	.	8g	.	8b	.	.	.
.	.	.	.	8a	.	8cc	.	8aJ	.	8ccJ	.	.	.
!	!	!	!	!	!	!	!	!	!	!LO:LB:g=original	!	!	!
4GG	.	.	.	4b	hoc	4dd	hoc	8bL	.	8ddL	.	.	.
.	.	.	.	.	.	.	.	8g	.	8b	.	.	.
4r	.	.	.	4b	ex-	4dd	ex-	8b	.	8dd	.	.	.
.	.	.	.	.	.	.	.	8gJ	.	8bJ	.	.	.
=71	=71	=71	=71	=71	=71	=71	=71	=71	=71	=71	=71	=71	=71
4D	.	.	.	4a	-i-	4cc	-i-	8aL	.	8ccL	.	1r	1r
.	.	.	.	.	.	.	.	8a	.	8cc	.	.	.
4r	.	.	.	12gL	-li-	12bL	-li-	8a	.	8cc	.	.	.
.	.	.	.	12a	.	12cc	.	.	.	.	.	.	.
.	.	.	.	.	.	.	.	8gJ	.	8bJ	.	.	.
.	.	.	.	12gJ	.	12bJ	.	.	.	.	.	.	.
!	!	!	!	!	!	!	!	!LO:LB:g=original	!	!	!	!	!
*	*	*	*	*	*	*	*	*tremolo	*	*	*	*	*
8r	.	.	.	4f#	-um	4a	-um	8f#L	.	8aL	.	.	.
8DL	.	.	.	.	.	.	.	8f#	.	8a	.	.	.
8F#	.	.	.	8r	.	8r	.	8f#	.	8a	.	.	.
8DJ	.	.	.	8f#	o-	8a	os-	8f#J	.	8aJ	.	.	.
!	!	!	!	!LO:LB:g=original	!	!	!	!	!	!	!	!	!
=72	=72	=72	=72	=72	=72	=72	=72	=72	=72	=72	=72	=72	=72
4G	.	.	.	4.g	-sten-	4.b	-ten-	8gL	.	8bL	.	1r	1r
.	.	.	.	.	.	.	.	8g	.	8b	.	.	.
4r	.	.	.	.	.	.	.	8g	.	8b	.	.	.
.	.	.	.	8a	.	8cc	.	8aJ	.	8ccJ	.	.	.
4GG	.	.	.	4b	-de	4dd	-de	8bL	.	8ddL	.	.	.
.	.	.	.	.	.	.	.	8b	.	8dd	.	.	.
4r	.	.	.	8r	.	8r	.	8b	.	8dd	.	.	.
.	.	.	.	8g/	O	8b	o	8gJ	.	8bJ	.	.	.
!LO:LB:g=original	!	!	!	!	!	!LO:PB:g=original	!	!	!	!LO:LB:g=original	!	!	!
=73	=73	=73	=73	=73	=73	=73	=73	=73	=73	=73	=73	=73	=73
4c	.	.	.	4.a	pi-	4.cc	cle-	8gL	.	8ccL	.	1r	1r
.	.	.	.	.	.	.	.	8g	.	8cc	.	.	.
4r	.	.	.	.	.	.	.	8g	.	8cc	.	.	.
.	.	.	.	8b	.	8dd	.	8gJ	.	8ddJ	.	.	.
4C	.	.	.	4cc	-a	4ee	-mens,	8gL	.	8eeL	.	.	.
.	.	.	.	.	.	.	.	8g	.	8ee	.	.	.
4c	.	.	.	8r	.	8r	.	8g	.	8ee	.	.	.
.	.	.	.	8cc	o	8ee	o	8gJ	.	8eeJ	.	.	.
*	*	*	*	*	*	*	*	*Xtremolo	*	*	*	*	*
=74	=74	=74	=74	=74	=74	=74	=74	=74	=74	=74	=74	=74	=74
4G	.	.	.	4b	cle-	4dd	pi-	4b	.	4dd	.	4b	4dd
4c	.	.	.	8cc	-mens	8ee	-a	8ccL	.	8eeL	.	8ccL	8eeL
.	.	.	.	8a	o	8cc	o	8aJ	.	8ccJ	.	8aJ	8ccJ
4d	4	.	.	4g/	pi-	(>4b	pi-	4g	.	4b	.	4g	4b
4D	3	.	.	4f#/	.	4a)	.	4f#	.	4a\	.	4d	4a
=75	=75	=75	=75	=75	=75	=75	=75	=75	=75	=75	=75	=75	=75
*tremolo	*	*	*	*	*	*	*	*	*	*	*	*	*
8GL	.	.	.	2g	-a	2b	-a	(<8gL	.	(>8bL	.	1r	1r
8G	.	.	.	.	.	.	.	8b)	.	8dd)	.	.	.
8G	.	.	.	.	.	.	.	(<8g	.	(>8b	.	.	.
8GJ	.	.	.	.	.	.	.	8bJ)	.	8ddJ)	.	.	.
!	!	!	!	!	!	!	!	!LO:LB:g=original	!	!	!	!	!
8GL	n3	.	.	2dd	o	2ffn	o	(>8ddL	.	(>8ffnL	.	.	.
8G	.	.	.	.	.	.	.	8b)	.	8dd)	.	.	.
8G	.	.	.	.	.	.	.	(>8dd	.	(>8ff	.	.	.
8GJ	.	.	.	.	.	.	.	8bJ)	.	8ddJ)	.	.	.
!	!	!	!	!LO:PB:g=original	!	!	!	!	!	!LO:LB:g=original	!	!	!
=76	=76	=76	=76	=76	=76	=76	=76	=76	=76	=76	=76	=76	=76
*	*	*	*	*	*	*	*	*tremolo	*	*tremolo	*	*	*
8GL	6 4	.	.	2cc	dul-	2ee	dul-	8ccL	.	8eeL	.	1r	1r
8G	.	.	.	.	.	.	.	8cc	.	8ee	.	.	.
8G	.	.	.	.	.	.	.	8cc	.	8ee	.	.	.
8GJ	.	.	.	.	.	.	.	8ccJ	.	8eeJ	.	.	.
8AL	6#	.	.	2cc	-cis	2ff#X	-cis	8dL 8cc	.	8ff#XL	.	.	.
8A	.	.	.	.	.	.	.	8d 8cc	.	8ff#	.	.	.
8A	.	.	.	.	.	.	.	8d 8cc	.	8ff#	.	.	.
8AJ	.	.	.	.	.	.	.	8dJ 8cc	.	8ff#J	.	.	.
*Xtremolo	*	*	*	*	*	*	*	*Xtremolo	*	*Xtremolo	*	*	*
!	!	!	!	!	!	!LO:LB:g=original	!	!	!	!	!	!	!
=77	=77	=77	=77	=77	=77	=77	=77	=77	=77	=77	=77	=77	=77
!LO:TX:a:t=____________________	!	!	!	!	!	!	!	!	!	!	!	!	!
*	*	*	*	*^	*	*^	*	*	*	*	*	*	*
4G	.	.	.	4b	4rFyy	vir-	8ggL	4rAyy	vir-	4b	.	(>8ggL	.	8r	8r
.	.	.	.	.	.	.	8ddJ	.	.	.	.	8ddJ)	.	8bL	8dd
4c	.	.	.	(>8ccL	4rFyy	-go	8eeL	4rAyy	-go	8ccL	.	(>8eeL	.	8cc	8eeL
.	.	.	.	8aJ)	.	.	8ccJ	.	.	8aJ	.	8ccJ)	.	8aJ	8ccJ
4d;	6 4	.	.	4g;	4rFyy	Ma-	4b;	4rAyy	Ma-	4g;	.	4b;	.	4g;	4b;
!	!	!	!	!LO:TX:a:t=ferma	!	!	!	!	!	!	!	!	!	!LO:LB:g=original	!
4r;	.	.	.	4f#;	12aL	-ri-	4aT\	12ccL	-ri-	4f#	.	4r;	.	4r	4r;
.	.	.	.	.	12g	.	.	12b	.	.	.	.	.	.	.
.	.	.	.	.	12aJ	.	.	12ccJ	.	.	.	.	.	.	.
4ryy	.	.	.	4rddyy	12bL	.	4rddyy	12ddL	.	4ryy	.	4ryy	.	4ryy	4ryy
.	.	.	.	.	12a	.	.	12cc	.	.	.	.	.	.	.
.	.	.	.	.	12bJ	.	.	12ddJ	.	.	.	.	.	.	.
!	!	!	!	!LO:LB:g=original	!	!	!	!	!	!	!	!	!	!	!
4ryy	.	.	.	4rddyy	12ccL	.	4rddyy	12eeL	.	4ryy	.	4ryy	.	4ryy	4ryy
.	.	.	.	.	12b	.	.	12dd	.	.	.	.	.	.	.
.	.	.	.	.	12ccJ	.	.	12eeJ	.	.	.	.	.	.	.
4ryy	.	.	.	4rddyy	12ddL	.	4rddyy	12ff#L	.	4ryy	.	4ryy	.	4ryy	4ryy
.	.	.	.	.	12cc#X	.	.	12ee	.	.	.	.	.	.	.
.	.	.	.	.	12ddJ	.	.	12ff#J	.	.	.	.	.	.	.
4ryy	.	.	.	4rddyy	12eeL	.	4rddyy	12ggL	.	4ryy	.	4ryy	.	4ryy	4ryy
.	.	.	.	.	12dd	.	.	12ff#	.	.	.	.	.	.	.
.	.	.	.	.	12eeJ	.	.	12ggJ	.	.	.	.	.	.	.
4ryy	.	.	.	4rddyy	12ff#L	.	4rddyy	12aaL	.	4ryy	.	4ryy	.	4ryy	4ryy
.	.	.	.	.	12ee	.	.	12gg	.	.	.	.	.	.	.
.	.	.	.	.	12ff#J	.	.	12aaJ	.	.	.	.	.	.	.
!	!	!	!	!	!	!	!	!LO:LB:g=original	!	!	!	!	!	!	!
4ryy	.	.	.	4rddyy	4gg	.	4rddyy	4bb	.	4ryy	.	4ryy	.	4ryy	4ryy
4ryy	.	.	.	4rddyy	12ff#L	.	4rddyy	12aaL	.	4ryy	.	4ryy	.	4ryy	4ryy
.	.	.	.	.	12gg	.	.	12bb	.	.	.	.	.	.	.
.	.	.	.	.	12eeJ	.	.	12ggJ	.	.	.	.	.	.	.
4ryy	.	.	.	4rddyy	12ddL	.	4rddyy	12ff#L	.	4ryy	.	4ryy	.	4ryy	4ryy
.	.	.	.	.	12ee	.	.	12gg	.	.	.	.	.	.	.
.	.	.	.	.	12cc#J	.	.	12eeJ	.	.	.	.	.	.	.
4ryy	.	.	.	4rddyy	12bL	.	4rddyy	12ddL	.	4ryy	.	4ryy	.	4ryy	4ryy
.	.	.	.	.	12cc#	.	.	12ee	.	.	.	.	.	.	.
.	.	.	.	.	12aJ	.	.	12ccJ	.	.	.	.	.	.	.
4ryy	.	.	.	4rddyy	12gL	.	4rddyy	12bL	.	4ryy	.	4ryy	.	4ryy	4ryy
.	.	.	.	.	12a	.	.	12cc	.	.	.	.	.	.	.
.	.	.	.	.	12f#J	.	.	12aJ	.	.	.	.	.	.	.
4ryy	.	.	.	4rddyy	12bL	.	4rddyy	12ddL	.	4ryy	.	4ryy	.	4ryy	4ryy
.	.	.	.	.	12cc#	.	.	12ee	.	.	.	.	.	.	.
.	.	.	.	.	12aJ	.	.	12ccJ	.	.	.	.	.	.	.
4ryy	.	.	.	4rddyy	12gL	.	4rddyy	12bL	.	4ryy	.	4ryy	.	4ryy	4ryy
.	.	.	.	.	12a	.	.	12cc	.	.	.	.	.	.	.
.	.	.	.	.	12f#J	.	.	12aJ	.	.	.	.	.	.	.
4ryy	.	.	.	4rddyy	4g	.	4rddyy	4b	.	4ryy	.	4ryy	.	4ryy	4ryy
4ryy	.	.	.	4rddyy	4rAyy	.	4rddyy	4rAyy	.	4ryy	.	4ryy	.	4ryy	4ryy
*	*	*	*	*v	*v	*	*	*	*	*	*	*	*	*	*
*	*	*	*	*	*	*v	*v	*	*	*	*	*	*	*
=78	=78	=78	=78	=78	=78	=78	=78	=78	=78	=78	=78	=78	=78
!	!	!	!	!	!	!LO:TX:a:t=**	!	!	!	!	!	!	!
8GGL	.	.	f	2g	-a.	2g	-a.	8gL	f	8gL/	f	4.B	4g
8G`J	.	.	.	.	.	.	.	8ggJ	.	8ggJ\	.	.	.
8G`L	.	.	.	.	.	.	.	8ggL	.	8ggL	.	.	4r
16F#`L	.	.	.	.	.	.	.	16ff#L	.	16ff#L	.	8r	.
16E`JJ	.	.	.	.	.	.	.	16eeJJ	.	16eeJJ	.	.	.
8D`L	.	.	.	2r	.	2r	.	8ddL	.	8ddL	.	8bL	8ddL
8D`J	.	.	.	.	.	.	.	8ddJ	.	8ddJ	.	8bJ	8ddJ
8D`L\	.	.	.	.	.	.	.	8ddL	.	8ddL	.	4b	4dd
16C`L	.	.	.	.	.	.	.	16ccL	.	16ccL	.	.	.
16BB`JJ	.	.	.	.	.	.	.	16bJJ	.	16bJJ	.	.	.
!	!	!	!	!	!	!	!	!LO:LB:g=original	!	!	!	!	!
=79	=79	=79	=79	=79	=79	=79	=79	=79	=79	=79	=79	=79	=79
8E`L	.	.	???	1r	.	1r	.	8eeL	.	8eeL	.	2r	2r
8E`J	.	.	.	.	.	.	.	8eeJ	.	8eeJ	.	.	.
8E`L	.	.	.	.	.	.	.	8eeL	.	8eeL	.	.	.
16D`L	.	.	.	.	.	.	.	16ddL	.	16ddL	.	.	.
16C`JJ	.	.	.	.	.	.	.	16ccJJ	.	16ccJJ	.	.	.
!	!	!	!	!	!	!	!	!	!	!LO:LB:g=original	!	!	!
8BB`L\	.	.	.	.	.	.	.	8bL/	.	8bL	.	8gL\	8bL
8BB`J	.	.	.	.	.	.	.	8bJ	.	8bJ	.	8GJ/	8bJ
8BB`L	.	.	.	.	.	.	.	8bL	.	8bL\	.	4G	4b
16AA`L	.	.	.	.	.	.	.	16aL	.	16aL	.	.	.
16GG`JJ	.	.	.	.	.	.	.	16gJJ	.	16gJJ	.	.	.
=80	=80	=80	=80	=80	=80	=80	=80	=80	=80	=80	=80	=80	=80
4C	.	.	.	1r	.	1r	.	16ccLL	.	16ccLL	.	1r	1r
.	.	.	.	.	.	.	.	16b	.	16b	.	.	.
.	.	.	.	.	.	.	.	16cc	.	16cc	.	.	.
.	.	.	.	.	.	.	.	16ddJJ	.	16ddJJ	.	.	.
4r	.	.	.	.	.	.	.	16ccLL	.	16eeLL	.	.	.
.	.	.	.	.	.	.	.	16b	.	16dd	.	.	.
.	.	.	.	.	.	.	.	16cc	.	16ee	.	.	.
.	.	.	.	.	.	.	.	16aJJ	.	16ff#JJ	.	.	.
2r	.	.	.	.	.	.	.	4d 4b\	.	16ggLL	.	.	.
.	.	.	.	.	.	.	.	.	.	16ff#	.	.	.
.	.	.	.	.	.	.	.	.	.	16gg	.	.	.
.	.	.	.	.	.	.	.	.	.	16aaJJ	.	.	.
.	.	.	.	.	.	.	.	4r	.	16bbLL	.	.	.
.	.	.	.	.	.	.	.	.	.	16aa	.	.	.
.	.	.	.	.	.	.	.	.	.	16bb	.	.	.
.	.	.	.	.	.	.	.	.	.	16cccJJ	.	.	.
=81	=81	=81	=81	=81	=81	=81	=81	=81	=81	=81	=81	=81	=81
*tremolo	*	*	*	*	*	*	*	*tremolo	*	*	*	*	*
8BBL	6	.	.	1r	.	1r	.	16ggLL	.	4ddd	.	4r	4r
.	.	.	.	.	.	.	.	16gg	.	.	.	.	.
8BB	.	.	.	.	.	.	.	16gg	.	.	.	.	.
.	.	.	.	.	.	.	.	16gg	.	.	.	.	.
8BB	.	.	.	.	.	.	.	16gg	.	16cccLL	.	4B	4g
.	.	.	.	.	.	.	.	16gg	.	16bb	.	.	.
8BBJ	.	.	.	.	.	.	.	16gg	.	16aa	.	.	.
.	.	.	.	.	.	.	.	16ggJJ	.	16ggJJ	.	.	.
!LO:LB:g=original	!	!	!	!	!	!	!	!	!	!	!	!	!
*Xtremolo	*	*	*	*	*	*	*	*Xtremolo	*	*	*	*	*
8DL/	.	.	.	.	.	.	.	16ggLL	.	2aaT	.	8r	8r
.	.	.	.	.	.	.	.	16gg	.	.	.	.	.
8D	.	.	.	.	.	.	.	16gg	.	.	.	8dL	8aL
.	.	.	.	.	.	.	.	16ggJJ	.	.	.	.	.
8D	.	.	.	.	.	.	.	16aLL 16ff#	.	.	.	8d	8a
.	.	.	.	.	.	.	.	16a 16ff#	.	.	.	.	.
8DJ	.	.	.	.	.	.	.	16a 16ff#	.	.	.	8dJ	8aJ
.	.	.	.	.	.	.	.	16aJJ 16ff#	.	.	.	.	.
!	!	!	!	!	!	!	!	!LO:LB:g=original	!	!LO:LB:g=original	!	!	!
=82	=82	=82	=82	=82	=82	=82	=82	=82	=82	=82	=82	=82	=82
4G	.	.	.	1r	.	1r	.	8bL	.	8ggL	.	4B	4g
.	.	.	.	.	.	.	.	8dd	.	8bb	.	.	.
4D	.	.	.	.	.	.	.	8cc	.	8aa	.	8r	8r
.	.	.	.	.	.	.	.	8aJ	.	8ff#J	.	8d	8a
4G	.	.	.	.	.	.	.	8bL	.	8ggL	.	4B	4g
.	.	.	.	.	.	.	.	8dd	.	8bb	.	.	.
4D	.	.	.	.	.	.	.	8cc	.	8aa	.	8r	8r
.	.	.	.	.	.	.	.	8aJ	.	8ff#J	.	8d	8a
!	!	!	!	!	!	!	!	!	!	!	!	!LO:LB:g=original	!
=83	=83	=83	=83	=83	=83	=83	=83	=83	=83	=83	=83	=83	=83
8r	.	.	.	1r	.	1r	.	4d 4b	.	4d 4b 4gg	.	4B	4g
8GL	.	.	.	.	.	.	.	.	.	.	.	.	.
8D	.	.	.	.	.	.	.	4d 4b	.	4d 4b 4gg	.	4B	4g
8BBJ	.	.	.	.	.	.	.	.	.	.	.	.	.
2GG	.	.	.	.	.	.	.	4G 4d 4b	.	4d 4b 4gg	.	4B	4g
.	.	.	.	.	.	.	.	4r	.	4r	.	4r	4r
==84	==84	==84	==84	==84	==84	==84	==84	==84	==84	==84	==84	==84	==84
!!linebreak:original
!	!	!	!	!	!	!LO:TX:a:t=Druga wersja kadencji na fermacie w takcie 78.	!	!	!	!	!	!	!
4%5r	.	.	.	4g	.	4b	.	4%5r	.	4%5r	.	4%5r	4%5r
.	.	.	.	8aL	.	8ccL	.	.	.	.	.	.	.
.	.	.	.	8b	.	8dd	.	.	.	.	.	.	.
.	.	.	.	8cc	.	8ee	.	.	.	.	.	.	.
.	.	.	.	8dd	.	8ff#J	.	.	.	.	.	.	.
.	.	.	.	8ee	.	8ggL	.	.	.	.	.	.	.
.	.	.	.	8ff#J	.	8aaJ	.	.	.	.	.	.	.
.	.	.	.	4gg	.	4ryy	.	.	.	.	.	.	.
=||	=||	=||	=||	=||	=||	=||	=||	=||	=||	=||	=||	=||	=||
*-	*-	*-	*-	*-	*-	*-	*-	*-	*-	*-	*-	*-	*-
!!!system-decoration: s1,s2,s3,s4,s5,s6,s7
!!!RDF**kern: > = above
!!!RDF**kern: < = below
!!!RDF**kern: i = editorial accidental
!!!ENC: Anna Matuszewska
!!!END: 2020-03-27
